icon-themes/colibre_svg/cmd/sc_redactdoc.svg

<svg viewBox="0 0 16 16" xmlns="http://www.w3.org/2000/svg"><path d="m3 1v4 10h3.2011719 4.0585941 2.740234v-.908203-3.201172-5.890625-1.2949219l-2.695312-2.7050781z" fill="#fff"/><g fill="#808080"><path d="m3 0c-.554 0-1 .446-1 1v14c0 .554.446 1 1 1h10c.554 0 1-.446 1-1v-10.5-.8632812l-3.636719-3.6367188h-.863281zm0 1h6v3.5c0 .277.223.5.5.5h3.5v10h-10zm7 0 3 3h-3z"/><path d="m5 2c-.554 0-1 .446-1 1s.446 1 1 1h2c.554 0 1-.446 1-1s-.446-1-1-1zm-.5175781 4c-.2676102 0-.4824219.2148117-.4824219.4824219v.0351562c0 .2676102.2148117.4824219.4824219.4824219h4.0351562c.2676102 0 .4824219-.2148117.4824219-.4824219v-.0351562c0-.2676102-.2148117-.4824219-.4824219-.4824219zm2.5175781 2a2 2 0 0 0 -2 2 2 2 0 0 0 2 2 2 2 0 0 0 2-2 2 2 0 0 0 -2-2zm0 1a1 1 0 0 1 1 1 1 1 0 0 1 -1 1 1 1 0 0 1 -1-1 1 1 0 0 1 1-1zm-2.5 4c-.277 0-.5.223-.5.5s.223.5.5.5h1c.277 0 .5-.223.5-.5s-.223-.5-.5-.5zm4 0c-.277 0-.5.223-.5.5s.223.5.5.5h3c.277 0 .5-.223.5-.5s-.223-.5-.5-.5z"/></g></svg>

<svg xmlns="http://www.w3.org/2000/svg" viewBox="0 0 16 16">
  <path
     d="M 3 1 L 3 5 L 3 15 L 6.2011719 15 L 10.259766 15 L 13 15 L 13 14.091797 L 13 10.890625 L 13 5 L 13 3.7050781 L 10.304688 1 L 3 1 z "
     style="fill:#ffffff" />
  <path
     style="fill:#808080"
     d="M 3 0 C 2.446 0 2 0.446 2 1 L 2 15 C 2 15.554 2.446 16 3 16 L 13 16 C 13.554 16 14 15.554 14 15 L 14 4.5 L 14 3.6367188 L 10.363281 0 L 9.5 0 L 3 0 z M 3 1 L 9 1 L 9 4.5 C 9 4.777 9.223 5 9.5 5 L 13 5 L 13 15 L 3 15 L 3 1 z M 10 1 L 13 4 L 10 4 L 10 1 z "
     />
  <path
     style="fill:#808080"
     d="M 5 2 C 4.446 2 4 2.446 4 3 C 4 3.554 4.446 4 5 4 L 7 4 C 7.554 4 8 3.554 8 3 C 8 2.446 7.554 2 7 2 L 5 2 z M 4.4824219 6 C 4.2148117 6 4 6.2148117 4 6.4824219 L 4 6.5175781 C 4 6.7851883 4.2148117 7 4.4824219 7 L 8.5175781 7 C 8.7851883 7 9 6.7851883 9 6.5175781 L 9 6.4824219 C 9 6.2148117 8.7851883 6 8.5175781 6 L 4.4824219 6 z M 7 8 A 2 2 0 0 0 5 10 A 2 2 0 0 0 7 12 A 2 2 0 0 0 9 10 A 2 2 0 0 0 7 8 z M 7 9 A 1 1 0 0 1 8 10 A 1 1 0 0 1 7 11 A 1 1 0 0 1 6 10 A 1 1 0 0 1 7 9 z M 4.5 13 C 4.223 13 4 13.223 4 13.5 C 4 13.777 4.223 14 4.5 14 L 5.5 14 C 5.777 14 6 13.777 6 13.5 C 6 13.223 5.777 13 5.5 13 L 4.5 13 z M 8.5 13 C 8.223 13 8 13.223 8 13.5 C 8 13.777 8.223 14 8.5 14 L 11.5 14 C 11.777 14 12 13.777 12 13.5 C 12 13.223 11.777 13 11.5 13 L 8.5 13 z "
     />
</svg>
